X: 36204
T: Scotty O'Neill
R: reel
M: 4/4
K: Dmajor
|:AG|F2 D2 A2 F2|dedc B^ABc|d2 A2 G/A/G F2|F2 E2 E2 AG|
F2 D2 A2 F2|d3 c B^ABc|d2 A2- ABAG|F2 D2 D2:|
|:AG|F2 A2 f2 e2|d/e/d c2 B3 c|d2 A2 G2 F2|F2 E2 E3 G|
F3 A f3 e|dedc B^ABc|d2 A2 ABAG|F2 D2- D2:|

